X: 26421
T: Merry Reapers, The
R: hornpipe
M: 4/4
K: Gmajor
GDB,D GABA|GDB,DG2AB|(3cBA BG ABAG|(3FGA FED2BA|
GDB,D GABG|ABcB AGFD|dBcA GFDC|DGGFG2z2:|
dgfg edBA|GABcd2ef|gd (3efe dedB|edBGA2Bc|
de (3fga gfed|edgB AcBA|BdcA GFDC|DGGFG2z2:|

